X:300
T:Mask,The. (p)1688.PLFD.300
T:Hey To The Camp. (p)1688.PLFD.300
M:6/4
L:1/4
Q:3/4=90
S:Playford, Dancing Master,7th Ed,2nd.Supp,1688.
O:England
H:1688.
Z:Chris Partington.
K:C
c/d/ecdBG|A/B/cED2C|E/F/GEG2G|c/d/ecd3|
c/d/ecdBG|A/B/cED2C|E/F/GGA/B/cc|e/f/gec3:|
|:e/f/gegec|f/g/afa2a|e/f/gegec|dGdd3|
e/f/gegec|f/g/afa>gf|e/f/gedBG|A/B/cEC3:|
L:1/8
Q:180
|:"From Ed 17"defefd |edcBA2|BcdcdFE4D2|FGAGAFA4A2|def2d2e4e2|
def2d2edcBA2|Bcd2F2E4D2|FGA2F2A4A2|fgagfed6:|
fgagfga2gfed|gab2g2b4a2|fgagfga2f2d2|e2A2e2e4e2|
fgagfga2f2d2|gabfgab4b2|fga2f2edcBA2|d2FGA2D6:|
